bootstrap/file-earmark-person-fill.svg

<svg viewBox="0 0 16 16" xmlns="http://www.w3.org/2000/svg"><path d="M9.293 0H4v0C2.89 0 2 .89 2 2v12 0c0 1.1.89 2 2 2h8v0c1.1 0 2-.9 2-2V4.7v-.001c-.01-.27-.11-.52-.3-.71L9.99.28V.28c-.19-.19-.45-.3-.71-.3Zm.2 3.5v-2l3 3h-2v0c-.56 0-1-.45-1-1Zm1.5 4.5v0c0 1.65-1.35 3-3 3 -1.66 0-3-1.35-3-3v0c0-1.66 1.34-3 3-3 1.65 0 3 1.34 3 3Zm2 5.75v.24 0c0 .55-.45 1-1 1h-8v0c-.56 0-1-.45-1-1v-.25s1-1.76 5-1.76 5 1.75 5 1.75Z"/></svg>

<svg xmlns="http://www.w3.org/2000/svg" width="16" height="16" fill="currentColor" class="bi bi-file-earmark-person-fill" viewBox="0 0 16 16">
  <path d="M9.293 0H4a2 2 0 0 0-2 2v12a2 2 0 0 0 2 2h8a2 2 0 0 0 2-2V4.707A1 1 0 0 0 13.707 4L10 .293A1 1 0 0 0 9.293 0M9.5 3.5v-2l3 3h-2a1 1 0 0 1-1-1M11 8a3 3 0 1 1-6 0 3 3 0 0 1 6 0m2 5.755V14a1 1 0 0 1-1 1H4a1 1 0 0 1-1-1v-.245S4 12 8 12s5 1.755 5 1.755"/>
</svg>
